X:1
T:James Gibb editions
T:Sancta Caecilia, S 343 - Liszt
T:#
%%score 1 { ( 2 3 ) | ( 4 5 ) }
L:1/8
Q:1/4=96
M:4/2
K:A
V:1 treble nm="Alto"
V:2 treble nm="Organ or Harmonium"
V:3 treble 
V:4 bass 
V:5 bass 
V:1
"^andante""^Sancta Caecilia, S 343""^Franz Liszt\n(1811-86)" z16 | z16 | z4 E4 F4 (E2 F2) | G8 C8 | %4
w: ||Fi- at cor *|me- um|
 z4 E4 G4 (F2 G2) | A8 F8 | z16 | z16 | z16 | z16 | E4 (F2 G2) (A4 E4) | (E4 F2 G2 A4) E4 | %12
w: im- ma- cu\- *|la- tum.|||||Fi- at * cor *|me\- * * * ~um|
 z4 E4 E6 E2 | E8 E4 z4 | z4 A4 A6 A2 | A8 A4 z4 | z16 | z4 F4 D4 E4 | ^E8 F8 | z16 | z16 | z16 | %22
w: im- ma- cu-|la- tum,|im- ma- cu-|la- .~tum,||ut non con-|fun- dar.||||
 F4 (G2 A2) (B4 F4) | (F4 G2 A2 B4) F4 | z4 F4 F6 F2 | F8 F4 z4 | z4 B4 B6 B2 | B8 B4 z4 | z16 | %29
w: Fi- at * cor *|me\- * * * um|im- ma- cu-|la- tum,|im- ma- cu-|la- tum,||
 z4 G4 E4 F4 | ^^F8 G8 | z16 | (A4 G4 F4) E4 | z8 z4 (B4- | B4 A4 G4) F4 | (B4 A4) G4 F2 z2 | %36
w: ut non con-|fun- dar.||Fi\- * * at,|fi\-|* * * at|cor * me- um|
 (c4 B4) A4 G4 | (c4 ^B4 ^A4) G4 | z16 | z4 G4 G6 G2 | G4 ^E4 z8 | z4 G4 G6 G2 | G4 ^E4 z8 | %43
w: im\- * ma- cu-|la\- * * tum,||ut non con-|fun- dar,|ut non con-|fun- dar,|
 z4!f! c4 c6 c2 | c4 G4 z8 | z4 c4 c6 c2 | c8 G4 z4 | z16 | z16 | z16 | z16 | z16 | %52
w: ut non con-|fun- dar,|ut non con-|fun- dar.||||||
 z4!p! c4 c4 B4 | G8 A8 | z4"^rall."[Q:1/4=95] c4[Q:1/4=93] c4[Q:1/4=91] B4 | %55
w: Fi- at cor|me- um|im- ma- cu-|
[Q:1/4=89] G8[Q:1/4=88] A8 | z4 E4 F4 (E2 F2) | (G4 A8 E4) | E8 z8 | %59
w: la- tum,|im- ma- cu\- *|la\- * *|tum,|
"^un poco rit ." z4[Q:1/4=87] E4[Q:1/4=86] F4[Q:1/4=85] E4 |[Q:1/4=82] C16 | %61
w: im- ma- cu-|la-|
[Q:1/4=80] C8 !fermata!z8 |] %62
w: tum.|
V:2
 z4!pp! (E4 F4 E2 F2 | G8 C8 | z16) | z16 | z16 | z16 | z4 (F4 A4 G2 A2 | B4 F4 B4 A2 B2) | %8
"^dolce" ([Ec]4 [Ac]2 [FB]2 [EG]4- [EA]2) z2 | ([Ec]4 [Ac]2 [FB]2 [EG]4- [EA]2) z2 | %10
 ([CE]4 [CF]2 [EG]2 [CA]4- [CE]2) z2 | ([CE]4- [CF]2 [EG]2 [CA]4- [CE]2) z2 | z8 z2 (c4 B2 | %13
 G2 A2) z4 z2 (e4 c2) | (B2 c2) z4 z2 (f4- e2 | d2 c2) z4 z2 (f4 e2 | d2 c2 c2 B2 B4 A2) z2 | z16 | %18
 z16 | z4 F4 [^EG]4 [FA]4- | ([Fd]4 [Ad]2 [Gc]2 [FA]4- [FB]2) z2 | %21
 [Fd]4 [Ad]2 [Gc]2 [FA]4- [FB]2 z2 | [DF]4- [DG]2 [FA]2 [EB]4 [DF]2 z2 | %23
 ([DF]4- [DG]2 [FA]2 [EB]4 [DF]2) z2 | z8 z2 (d4 c2 | A2) B2 z4 z2 (f4 d2 | c2 d2) z4 z2 (g4 f2 | %27
 e2 d2) z4 z2 (g4 f2 | e2 d2 d2 c2 c4 B2) z2 | z16 | z16 | z4 G4 A4 B4 | A4 G2 E2 F4 E2 G2 | %33
 A4 G2 E2 F4 E2 G2 | B4 A2 F2 G4 F2 A2 | B4 A2 F2 G4 F2 A2 | c4 B2 G2 A4 G2 B2 | %37
 c4 ^B2 G2 ^A4 G2 B2 | c2 z2!f! ^e8 e2 ^d2 | ^B4- Bc^dc B2 c2 G2 ^E2 | G2 z2 ^e8 e2 ^d2 | %41
 ^B4- Bc^dc B2 c2 G2 ^E2 | G2 z2"^sempre" g8!f! g2 f2 | ^d4- d^efe d2 e2 c2 G2 | c2 z2 g8 g2 f2 | %45
 ^d4- d^efe d2 e2 c2 G2 | (^A2 G2!<(! [^Ec]2 [G^d]2 .[c^e]2 z2 .[df]2 z2)!<)! | %47
 [^eg]8- [eg]2 z2 z4 | z16 | z16 | z16 | z16 | z4"^dolcissimo"!p! [cc']4- [cc']4 [Bb]4 | %53
 [Gg]8 [Aa]4 z4 | z4 [cc']4- [cc']4 [Bb]4 | [Gg]8 [Aa]8- | [Aa]2 z2 z4 z8 | z16 | z16 | z16 | z16 | %61
 !fermata!z16 |] %62
V:3
 x16 | x16 | x16 | x16 | x16 | x16 | x4 x4 x4 x4 | x4 x4 x4 F4 | x4 x4 x4 x4 | x4 x4 x4 x4 | %10
 x4 x4 x4 x4 | x4 x4 x4 x4 | x4 x4 z2 E6 | x4 z4 z2 A6 | A4 z4 z2 A6 | A4 z4 z2 A6 | A4 G4 F6 z2 | %17
 x4 x4 x4 x4 | x4 x4 x4 x4 | x16 | x16 | x16 | x16 | x16 | x4 x4 z2 F6 | x4 z4 z2 B6 | %26
 B4 z4 z2 B6 | B4 z4 z2 B6 | B4 A4 G6 z2 | x16 | x16 | z4 E4 F8 | D8 B,8 | D8 B,8 | E8 C8 | E8 C8 | %36
 F8 ^D8 | F8 ^D8 | ^E2 z2 c4 ^A4 G2 F2 | [^EG]8- [EG]2 z2 x4 | x2 z2 c4 ^A4 G2 F2 | %41
 [^EG]8- [EG]2 z2 x4 | x2 z2 ^e4 c4 ^B2 ^A2 | [Gc]8- [Gc]2 z2 x4 | x2 z2 ^e4 c4 ^B2 ^A2 | %45
 [Gc]8- [Gc]2 z2 x4 | x16 | x16 | x16 | x16 | x16 | x16 | x16 | x16 | x16 | x16 | x16 | x16 | x16 | %59
 x16 | x16 | x16 |] %62
V:4
 z16 | z16 | z16 | z16 | z16 | z16 | z16 | z16 | z4 (E2 D2 C6 B,2 | A,2) z2 (E2 D2 C6) z2 | %10
 z2 (B,2 A,2 G,2 F,4 G,2) z2 | z2 (B,2 A,2 G,2 F,4 G,2) z2 | (C4 C2 B,2 G,4 A,2) z2 | %13
 (E4 C2 B,2 B,4 C2) z2 | (F4 E2 C2 B,2 C2 E2 C2) | (F4 E2 C2 B,2 C2 E2 C2) | (F4 E4 D6) z2 | z16 | %18
 z16 | z8 (D6 C2 | B,2) z2 F2 !courtesy!=E2 D6 C2 | B,2 z2 (F2 E2 D6) z2 | %22
 z2 (C2 B,2 A,2 G,4 B,2) z2 | z2 (C2 B,2 A,2 G,4 B,2) z2 | (D4 D2 C2 A,4 B,2) z2 | %25
 (F4 F2 D2 C4 D2) z2 | (G4 F2 D2 C2 D2 F2 D2) | (G4 F2 D2 C2 D2 F2 D2) | (G4 F4 E6) z2 | z16 | %30
 z16 | z8 C4 D4 |"^dolce (molto legato)" F,4 E,2 G,2 A,4 G,2 E,2 | F,4 E,2 G,2 A,4 G,2 E,2 | %34
 G,4 F,2 A,2 B,4 A,2 F,2 | G,4"^poco a poco cresc." F,2 A,2 B,4 A,2 F,2 | A,4 G,2 B,2 C4 B,2 G,2 | %37
 A,4 G,2 ^B,2 ^A,4 B,2 G,2 | .C2 z2 ^E8 E2 ^D2 | ^B,4- B,C^DC B,2 C2 G,2 ^E,2 | G,2 z2 ^E8 E2 ^D2 | %41
 (^B,4 B,)C^DC B,2 C2 G,2 ^E,2 | G,2 z2[K:treble] G8 G2 F2 | ^D4- D^EFE D2 E2 C2 G,2 | %44
 C2 z2 G8 G2 F2 | ^D4- D^EFE D2 E2 C2 G,2 | %46
[K:bass] (^A,2 G,2 [^E,C]2 [G,^D]2 .[C^E]2 z2 .[DF]2) z2 | [^EG]8- [EG]2 z2 z4 | %48
 z4[K:treble]!p! (^E4 G4 F2 G2) | (^A8 ^E4) z4 | z4 (^E4 G4 F2 G2 | =A8 F4) z4 | z8 ([DF]8- | %53
 [DF]4 [CE]8) z4 | z4"^rall." [EA]4 [^DF]4 [=DF]4- | [DF]4 [CE]8 [DF]4 | [CE]2 z2 z4 z8 | z16 | %58
 z16 | z16 | z16 | !fermata!z16 |] %62
V:5
 x16 | x16 | x16 | x16 | x16 | x16 | x16 | x16 | x16 | x16 | x16 | x16 | x16 | x16 | x16 | x16 | %16
 x16 | x16 | x16 | x16 | x16 | x16 | x16 | x16 | x16 | x16 | x16 | x16 | x16 | x16 | x16 | x16 | %32
 B,,8 D,8 | B,,8 D,8 | C,8 E,8 | C,8 E,8 | ^D,8 F,8 | ^D,8 F,8 | ^E,2 z2 C4 ^A,4 G,2 F,2 | %39
 [^E,G,]8- [E,G,]2 z2 x4 | x2 z2 C4 ^A,4 G,2 F,2 | [^E,G,]8- [E,G,]2 z2 x4 | %42
 x2 z2[K:treble] ^E4 C4 ^B,2 ^A,2 | [G,C]8- [G,C]2 z2 x4 | x2 z2 ^E4 C4 ^B,2 ^A,2 | %45
 [G,C]8- [G,C]2 z2 x2 x2 |[K:bass] x16 | x16 | x4[K:treble] x12 | x16 | x16 | x16 | x16 | x16 | %54
 x16 | x16 | x16 | x16 | x16 | x16 | x16 | x16 |] %62

